src/22/actions/media-playlist-shuffle.svg

<svg xmlns="http://www.w3.org/2000/svg" viewBox="0 0 22 22">
  <defs id="defs3051">
    <style type="text/css" id="current-color-scheme">
      .ColorScheme-Text {
        color:#5d656b;
      }
      </style>
  </defs>
 <path 
    style="fill:currentColor;fill-opacity:1;stroke:none" 
    d="M 16 5 L 16 7 L 13 7 C 10.784 7 9 8.784 9 11 C 9 12.662 7.662 14 6 14 L 3 14 L 3 15 L 6 15 C 8.216 15 10 13.216 10 11 C 10 9.338 11.338 8 13 8 L 16 8 L 16 10 L 19 7.5 L 16 5 z M 3 7 L 3 8 L 6 8 C 6.8536128 8 7.6168144 8.3572581 8.1621094 8.9257812 C 8.2578781 8.5814037 8.3956215 8.2568349 8.5742188 7.9570312 C 7.8779048 7.3680394 6.9875937 7 6 7 L 3 7 z M 16 12 L 16 14 L 13 14 C 12.146387 14 11.383186 13.642742 10.837891 13.074219 C 10.742121 13.418597 10.604379 13.743165 10.425781 14.042969 C 11.122095 14.631961 12.012406 15 13 15 L 16 15 L 16 17 L 19 14.5 L 16 12 z "
    class="ColorScheme-Text"
    />  
</svg>

<svg xmlns="http://www.w3.org/2000/svg" viewBox="0 0 22 22"><path d="M16 5v2h-3c-2.216 0-4 1.784-4 4 0 1.662-1.338 3-3 3H3v1h3c2.216 0 4-1.784 4-4 0-1.662 1.338-3 3-3h3v2l3-2.5L16 5zM3 7v1h3c.854 0 1.617.357 2.162.926.096-.345.234-.67.412-.969A3.968 3.968 0 0 0 6 7H3zm13 5v2h-3a2.983 2.983 0 0 1-2.162-.926 3.962 3.962 0 0 1-.412.969A3.968 3.968 0 0 0 13 15h3v2l3-2.5-3-2.5z" fill="currentColor" color="#5d656b"/></svg>
